image/library.svg

<svg height="250" viewBox="0 0 250 250" width="250" xmlns="http://www.w3.org/2000/svg"><path d="m221.7135 250.74427c16.64146 0 30.11217-13.35307 30.11217-29.88808v-190.622339c0-16.536008-13.47071-29.92114503-30.11217-29.92114503h-191.838021c-16.641512 0-30.11216921 13.38513703-30.11216921 29.92114503v190.624109c0 16.5358 13.47065721 29.88865 30.11216921 29.88865h191.838021z" fill="#fff" stroke-width="2.0339"/><path d="m33.690912 13.518759c-13.126878 0-23.8101831 10.370316-23.8101831 23.112833v177.281338c0 12.74184 10.6833051 23.09719 23.8101831 23.09719h182.618218c13.14234 0 23.81014-10.35535 23.81014-23.09719v-177.279265c0-12.742567-10.66775-23.112685-23.81014-23.112685h-182.625996z" fill="#d38d5f" stroke-width="1.913751"/><path d="m66.758034 204.49108-38.823772-111.754105c14.117736-25.023819 41.764966-33.554667 82.941698-25.592542 21.17661-21.611481 45.00028-28.436159 71.47104-20.474035l36.23359 104.298272 2.59018 7.45584c-34.11785-7.96214-57.94153-1.13746-71.47103 20.47401-40.00026-7.96212-68.23573.56874-84.706421 25.59256l-37.059057-111.754105m82.941698-25.592542 33.52963 107.488677" fill="#fff" stroke="#000001" stroke-opacity=".597015" stroke-width="4"/></svg>

<?xml version="1.0" encoding="UTF-8" standalone="no"?>
<svg
   xmlns:dc="http://purl.org/dc/elements/1.1/"
   xmlns:cc="http://creativecommons.org/ns#"
   xmlns:rdf="http://www.w3.org/1999/02/22-rdf-syntax-ns#"
   xmlns:svg="http://www.w3.org/2000/svg"
   xmlns="http://www.w3.org/2000/svg"
   xmlns:sodipodi="http://sodipodi.sourceforge.net/DTD/sodipodi-0.dtd"
   xmlns:inkscape="http://www.inkscape.org/namespaces/inkscape"
   xml:space="default"
   version="1.1"
   viewBox="0 0 250 250"
   width="250"
   height="250"
   id="svg6"
   sodipodi:docname="library.svg"
   inkscape:version="0.92.4 (5da689c313, 2019-01-14)">
  <metadata
     id="metadata12">
    <rdf:RDF>
      <cc:Work
         rdf:about="">
        <dc:format>image/svg+xml</dc:format>
        <dc:type
           rdf:resource="http://purl.org/dc/dcmitype/StillImage" />
      </cc:Work>
    </rdf:RDF>
  </metadata>
  <defs
     id="defs10" />
  <sodipodi:namedview
     pagecolor="#ffffff"
     bordercolor="#666666"
     borderopacity="1"
     objecttolerance="10"
     gridtolerance="10"
     guidetolerance="10"
     inkscape:pageopacity="0"
     inkscape:pageshadow="2"
     inkscape:window-width="1920"
     inkscape:window-height="1027"
     id="namedview8"
     showgrid="false"
     inkscape:zoom="1.888"
     inkscape:cx="178.42201"
     inkscape:cy="79.862105"
     inkscape:window-x="-8"
     inkscape:window-y="-8"
     inkscape:window-maximized="1"
     inkscape:current-layer="svg6" />
  <title
     id="title2">日本の地図記号 - 図書館</title>
  <path
     inkscape:connector-curvature="0"
     style="fill:#ffffff;stroke-width:2.03389978"
     d="m 221.7135,250.74427 c 16.64146,0 30.11217,-13.35307 30.11217,-29.88808 V 30.233851 c 0,-16.536008 -13.47071,-29.92114503 -30.11217,-29.92114503 H 29.875479 c -16.641512,0 -30.11216921,13.38513703 -30.11216921,29.92114503 V 220.85796 c 0,16.5358 13.47065721,29.88865 30.11216921,29.88865 H 221.7135 Z"
     id="path2-3" />
  <path
     inkscape:connector-curvature="0"
     style="fill:#d38d5f;stroke-width:1.91375089"
     d="m 33.690912,13.518759 c -13.126878,0 -23.8101831,10.370316 -23.8101831,23.112833 V 213.91293 c 0,12.74184 10.6833051,23.09719 23.8101831,23.09719 H 216.30913 c 13.14234,0 23.81014,-10.35535 23.81014,-23.09719 V 36.633665 c 0,-12.742567 -10.66775,-23.112685 -23.81014,-23.112685 H 33.683134 Z"
     id="path4-4" />
  <path
     d="M 66.758034,204.49108 27.934262,92.736975 C 42.051998,67.713156 69.699228,59.182308 110.87596,67.144433 132.05257,45.532952 155.87624,38.708274 182.347,46.670398 l 36.23359,104.298272 2.59018,7.45584 c -34.11785,-7.96214 -57.94153,-1.13746 -71.47103,20.47401 -40.00026,-7.96212 -68.23573,0.56874 -84.706421,25.59256 L 27.934262,92.736975 M 110.87596,67.144433 144.40559,174.63311"
     id="path4"
     inkscape:connector-curvature="0"
     style="fill:#ffffff;stroke:#000001;stroke-width:4;stroke-miterlimit:4;stroke-dasharray:none;stroke-opacity:0.5970149"
     sodipodi:nodetypes="ccccccccccc" />
</svg>
